assets/textures/gui/bevel/Pressure.svg

<?xml version="1.0" encoding="UTF-8" standalone="no"?>
<!-- Created with Inkscape (http://www.inkscape.org/) -->

<svg
   version="1.1"
   id="svg1"
   width="200"
   height="200"
   viewBox="0 0 200 200"
   xml:space="preserve"
   xmlns="http://www.w3.org/2000/svg"
   xmlns:svg="http://www.w3.org/2000/svg"><defs
     id="defs1" /><g
     id="g1"
     style="display:inline"><path
       style="display:inline;fill:#e7e8ed;fill-opacity:1;stroke-width:1.0149"
       d="m 8.0011016,153 c -0.0027,-32.27899 4.73e-4,-19.52128 0,-106 C 30.964415,33.117811 80.005078,5.4659024 89.000437,0.00231398 c 10.732779,-0.00366995 19.924703,-0.002439966 21.999813,0 C 124.78004,8.3856966 178.22741,38.60326 191.99959,47 c -1e-4,35.43461 9.7e-4,32.350028 0,106 -14.07883,8.41072 -66.96544,38.66138 -80.99934,47 H 89.000437 C 78.870831,193.95918 25.308389,163.33841 8.0011016,153 Z"
       id="path4"
       clip-path="none" /><path
       id="path87"
       clip-path="none"
       style="display:inline;fill:#1e3251;fill-opacity:1;stroke-width:1.0149"
       d="m 99.583984,50.5625 c -25.531082,0 -47.842737,17.575765 -54.296875,42.771484 -2.521596,9.843846 -1.180017,29.629526 2.335938,33.866016 25.91831,0.085 71.285663,0.12231 103.921873,0 3.5113,-4.23086 4.85326,-24.00728 2.33985,-33.866016 C 147.48848,68.245674 125.04042,50.5625 99.583984,50.5625 Z m 0.259766,6.601562 c 20.51159,0.210796 40.44646,13.523278 47.33398,36.585938 1.62392,5.43757 1.94668,19.59815 0.55079,24.16602 l -0.76563,2.5 -47.177734,0.21679 c -25.947903,0.11835 -47.377164,-0.10921 -47.621094,-0.5039 -0.243923,-0.39468 -0.868777,-3.44892 -1.386718,-6.78711 C 48.50708,98.709594 53.97658,82.673811 64.992188,71.658203 75.022688,61.627695 87.536795,57.037592 99.84375,57.164062 Z" /><path
       id="path94"
       style="fill:#1e3251;fill-opacity:1;stroke:none;stroke-width:0.347541;stroke-opacity:0.487466"
       d="m 99.599609,61.746094 a 3.3503899,2.9109771 0 0 0 -3.34375,2.83789 H 96.25 v 0.07227 6.253906 0.19336 h 0.01563 a 3.3503899,2.9109771 0 0 0 3.333984,2.71875 3.3503899,2.9109771 0 0 0 3.333976,-2.71875 h 0.0156 v -0.19336 -6.253906 -0.07227 h -0.002 a 3.3503899,2.9109771 0 0 0 -3.347666,-2.83789 z M 127.2832,73.439453 a 3.3503899,2.9109771 45 0 0 -1.86718,0.71875 l -0.004,-0.0039 -0.0508,0.05078 -4.42188,4.421875 -0.13672,0.136719 0.01,0.01172 a 3.3503899,2.9109771 45 0 0 0.43555,4.279297 3.3503899,2.9109771 45 0 0 4.28125,0.435546 l 0.01,0.01172 0.13672,-0.136719 4.42188,-4.421875 0.0508,-0.05273 a 3.3503899,2.9109771 45 0 0 -0.36133,-4.375 3.3503899,2.9109771 45 0 0 -2.50391,-1.076172 z M 59.611328,101.59961 v 0.0156 a 2.9109771,3.3503899 0 0 0 -2.71875,3.33399 2.9109771,3.3503899 0 0 0 2.71875,3.33594 v 0.0156 h 0.19336 6.253906 0.07227 v -0.002 a 2.9109771,3.3503899 0 0 0 2.837891,-3.34766 v -0.002 a 2.9109771,3.3503899 0 0 0 -2.837891,-3.34375 v -0.006 h -0.07227 -6.253906 z m 73.207032,0 v 0.0156 a 2.9109771,3.3503899 0 0 0 -2.71875,3.33399 2.9109771,3.3503899 0 0 0 2.71875,3.33594 v 0.0156 h 0.19336 6.2539 0.0723 v -0.002 a 2.9109771,3.3503899 0 0 0 2.83789,-3.34766 v -0.002 a 2.9109771,3.3503899 0 0 0 -2.83789,-3.34375 v -0.006 h -0.0723 -6.2539 z" /><circle
       style="fill:#1e3251;fill-opacity:1;stroke:none;stroke-width:1.02161;stroke-opacity:0.487466"
       id="path98"
       cx="99.5"
       cy="104.85"
       r="12.75" /><path
       id="path97"
       style="display:inline;fill:#1e3251;fill-opacity:1;stroke:none;stroke-width:0.347541;stroke-opacity:0.487466"
       d="m 69.759238,74.713444 c 1.285542,-1.281865 3.223858,-1.44046 4.37108,-0.357697 l 0.0042,-0.0042 0.0511,0.0511 28.108322,28.200683 0.13673,0.13672 -0.011,0.011 c 0.99731,1.16176 0.80723,3.03179 -0.43503,4.27992 -1.24803,1.24238 -3.118162,1.43235 -4.279922,0.43504 l -0.011,0.0111 -0.13673,-0.13673 -28.108304,-28.2007 -0.0511,-0.0511 0.0013,-0.0013 c -1.083665,-1.148182 -0.923758,-3.08851 0.360462,-4.373845 z" /></g></svg>

<?xml version="1.0" encoding="UTF-8" standalone="no"?>
<!-- Created with Inkscape (http://www.inkscape.org/) -->

<svg
   version="1.1"
   id="svg1"
   width="512"
   height="512"
   viewBox="0 0 512 512"
   xml:space="preserve"
   xmlns="http://www.w3.org/2000/svg"
   xmlns:svg="http://www.w3.org/2000/svg"><defs
     id="defs1" /><g
     id="g1"
     style="display:inline"
     transform="matrix(2.52,0,0,2.52,4,4)"><path
       style="display:inline;fill:#e7e8ed;fill-opacity:1;stroke-width:1.0149"
       d="m 8.0011016,153 c -0.0027,-32.27899 4.73e-4,-19.52128 0,-106 C 30.964415,33.117811 80.005078,5.4659024 89.000437,0.00231398 c 10.732779,-0.00366995 19.924703,-0.002439966 21.999813,0 C 124.78004,8.3856966 178.22741,38.60326 191.99959,47 c -1e-4,35.43461 9.7e-4,32.350028 0,106 -14.07883,8.41072 -66.96544,38.66138 -80.99934,47 H 89.000437 C 78.870831,193.95918 25.308389,163.33841 8.0011016,153 Z"
       id="path4"
       clip-path="none" /><path
       id="path87"
       clip-path="none"
       style="display:inline;fill:#1e3251;fill-opacity:1;stroke-width:1.0149"
       d="m 99.583984,50.5625 c -25.531082,0 -47.842737,17.575765 -54.296875,42.771484 -2.521596,9.843846 -1.180017,29.629526 2.335938,33.866016 25.91831,0.085 71.285663,0.12231 103.921873,0 3.5113,-4.23086 4.85326,-24.00728 2.33985,-33.866016 C 147.48848,68.245674 125.04042,50.5625 99.583984,50.5625 Z m 0.259766,6.601562 c 20.51159,0.210796 40.44646,13.523278 47.33398,36.585938 1.62392,5.43757 1.94668,19.59815 0.55079,24.16602 l -0.76563,2.5 -47.177734,0.21679 c -25.947903,0.11835 -47.377164,-0.10921 -47.621094,-0.5039 -0.243923,-0.39468 -0.868777,-3.44892 -1.386718,-6.78711 C 48.50708,98.709594 53.97658,82.673811 64.992188,71.658203 75.022688,61.627695 87.536795,57.037592 99.84375,57.164062 Z" /><path
       id="path94"
       style="fill:#1e3251;fill-opacity:1;stroke:none;stroke-width:0.347541;stroke-opacity:0.487466"
       d="M 99.599299 61.745877 A 3.3503899 2.9109771 0 0 0 96.255735 64.584108 L 96.25031 64.584108 L 96.25031 64.656188 L 96.25031 70.910063 L 96.25031 71.103826 L 96.265811 71.103826 A 3.3503899 2.9109771 0 0 0 99.599299 73.821925 A 3.3503899 2.9109771 0 0 0 102.93356 71.103826 L 102.94906 71.103826 L 102.94906 70.910063 L 102.94906 64.656188 L 102.94906 64.584108 L 102.94751 64.584108 A 3.3503899 2.9109771 0 0 0 99.599299 61.745877 z M 127.2833 73.439825 A 3.3503899 2.9109771 45 0 0 125.4162 74.158296 L 125.41233 74.154421 L 125.36117 74.204799 L 120.93952 78.627232 L 120.80233 78.763641 L 120.81241 78.775267 A 3.3503899 2.9109771 45 0 0 121.24798 83.054315 A 3.3503899 2.9109771 45 0 0 125.52936 83.489893 L 125.53943 83.502294 L 125.67584 83.36511 L 130.09828 78.943452 L 130.14865 78.890749 A 3.3503899 2.9109771 45 0 0 129.78748 74.515594 A 3.3503899 2.9109771 45 0 0 127.2833 73.439825 z M 72.291202 73.637463 C 71.411979 73.626675 70.482231 73.992183 69.759115 74.713232 C 68.474896 75.998565 68.315053 77.939431 69.398717 79.087612 L 69.397941 79.088387 L 69.44832 79.13954 L 97.557044 107.34049 L 97.693452 107.4769 L 97.705078 107.46605 C 98.866837 108.46336 100.73687 108.27363 101.9849 107.03125 C 103.22716 105.78312 103.41701 103.91318 102.4197 102.75143 L 102.43056 102.7398 L 102.29415 102.60339 L 74.185423 74.402437 L 74.13427 74.351283 L 74.130394 74.355934 C 73.628485 73.882225 72.975041 73.645853 72.291202 73.637463 z M 59.61139 101.5997 L 59.61139 101.6152 A 2.9109771 3.3503899 0 0 0 56.892516 104.94947 A 2.9109771 3.3503899 0 0 0 59.61139 108.28528 L 59.61139 108.30078 L 59.804377 108.30078 L 66.058253 108.30078 L 66.131107 108.30078 L 66.131107 108.29846 A 2.9109771 3.3503899 0 0 0 68.968564 104.95102 L 68.968564 104.94947 A 2.9109771 3.3503899 0 0 0 66.131107 101.60513 L 66.131107 101.5997 L 66.058253 101.5997 L 59.804377 101.5997 L 59.61139 101.5997 z M 132.8187 101.5997 L 132.8187 101.6152 A 2.9109771 3.3503899 0 0 0 130.09983 104.94947 A 2.9109771 3.3503899 0 0 0 132.8187 108.28528 L 132.8187 108.30078 L 133.01169 108.30078 L 139.26556 108.30078 L 139.33764 108.30078 L 139.33764 108.29846 A 2.9109771 3.3503899 0 0 0 142.17587 104.95102 L 142.17587 104.94947 A 2.9109771 3.3503899 0 0 0 139.33764 101.60513 L 139.33764 101.5997 L 139.26556 101.5997 L 133.01169 101.5997 L 132.8187 101.5997 z " /><circle
       style="fill:#1e3251;fill-opacity:1;stroke:none;stroke-width:1.02161;stroke-opacity:0.487466"
       id="path98"
       cx="99.5"
       cy="104.85"
       r="12.75" /></g></svg>
